icons/wheelchair.svg

<svg width="24" height="24" viewBox="0 0 24 24" fill="none" xmlns="http://www.w3.org/2000/svg">
<path fill-rule="evenodd" clip-rule="evenodd" d="M11 4C10.4477 4 10 4.44772 10 5C10 5.55228 10.4477 6 11 6C11.5523 6 12 5.55228 12 5C12 4.44772 11.5523 4 11 4ZM8 5C8 3.34315 9.34315 2 11 2C12.6569 2 14 3.34315 14 5C14 6.30622 13.1652 7.41746 12 7.82929V10H16C16.5523 10 17 10.4477 17 11C17 11.5523 16.5523 12 16 12H12V14H15C15.3038 14 15.5911 14.1381 15.7809 14.3753L19.7809 19.3753C20.1259 19.8066 20.056 20.4359 19.6247 20.7809C19.1934 21.1259 18.5641 21.056 18.2191 20.6247L14.5194 16H11C10.4477 16 10 15.5523 10 15V7.82929C8.83481 7.41746 8 6.30622 8 5ZM7.91635 11.0157C8.13747 11.5218 7.90646 12.1113 7.40037 12.3324C5.98556 12.9506 5 14.3613 5 16C5 18.2091 6.79086 20 9 20C10.3078 20 11.469 19.3734 12.2005 18.3998C12.5323 17.9583 13.1591 17.8693 13.6007 18.201C14.0422 18.5327 14.1312 19.1596 13.7995 19.6012C12.7065 21.0559 10.9634 22 9 22C5.68629 22 3 19.3137 3 16C3 13.5381 4.48263 11.4246 6.59963 10.4997C7.10572 10.2786 7.69524 10.5096 7.91635 11.0157Z" fill="black"/>
</svg>

<svg
  width="24"
  height="24"
  viewBox="0 0 24 24"
  xmlns="http://www.w3.org/2000/svg"
>
  <path
    fill-rule="evenodd"
    clip-rule="evenodd"
    d="M11 4a1 1 0 1 0 0 2 1 1 0 0 0 0-2zM8 5a3 3 0 1 1 4 2.83V10h4a1 1 0 1 1 0 2h-4v2h3a1 1 0 0 1 .78.375l4 5a1 1 0 1 1-1.56 1.25L14.52 16H11a1 1 0 0 1-1-1V7.83A3.001 3.001 0 0 1 8 5zm-.084 6.016a1 1 0 0 1-.516 1.316 4.001 4.001 0 1 0 4.8 6.068 1 1 0 0 1 1.6 1.201A6 6 0 1 1 6.6 10.5a1 1 0 0 1 1.316.516z"
  />
</svg>
